assets/img/blocks/form/text.svg

<?xml version="1.0" encoding="UTF-8"?>
<svg width="17px" height="16px" viewBox="0 0 17 16" version="1.1" xmlns="http://www.w3.org/2000/svg" xmlns:xlink="http://www.w3.org/1999/xlink">
    <!-- Generator: Sketch 58 (84663) - https://sketch.com -->
    <title>Text</title>
    <desc>Created with Sketch.</desc>
    <g id="Page-1" stroke="none" stroke-width="1" fill="none" fill-rule="evenodd">
        <path d="M8.88951953,0 C8.92969815,0.0703125838 8.96987676,0.140625168 9.00001073,0.210937751 L11.059165,5.03237207 C11.5613977,6.21764134 12.0368447,7.41183919 12.5241965,8.60008466 L13.268989,10.3761284 C13.6305966,11.2118437 13.9279184,12.0668447 14.289526,12.8999886 L14.6659401,13.7154181 C14.7388569,13.8605076 14.832607,14.0189899 14.9263571,14.0926507 C15.2578307,14.3538118 16.1819389,14.4140797 16.6540377,14.5948835 C16.6841717,14.7857319 16.7143056,14.9765804 16.7143056,15.1674288 L16.704261,15.4285898 C15.4285898,15.4285898 14.1529187,15.2678753 12.8772475,15.2678753 C11.5613977,15.2678753 10.2455479,15.3783665 8.92969815,15.4185452 C8.92969815,15.1573841 8.9397428,14.8962231 8.96987676,14.6350621 L10.5256996,14.302176 C10.7898427,14.2395538 11.0892989,14.1303182 11.0892989,13.851579 C11.0892989,13.4899714 9.79353846,10.506709 9.63282398,10.0948781 L5.11272931,10.0747888 L4.96834777,10.4165297 C4.59374856,11.3332761 3.83705815,13.3411279 3.83705815,13.6707752 C3.83705815,14.4442136 5.31362241,14.4743476 5.88616773,14.5547049 C5.89621239,14.7455533 5.89621239,14.9364017 5.89621239,15.1372948 C5.89621239,15.2276967 5.88616773,15.3180986 5.87612308,15.4085005 C4.71094312,15.4085005 3.5357185,15.2076074 2.37053854,15.2076074 C2.22991337,15.2076074 2.02902028,15.2678753 1.88839511,15.2879647 C1.25558185,15.3984559 0.632813254,15.4285898 0,15.4285898 L0.0200893097,14.6350621 C0.964286864,14.3437671 1.98884166,14.5446602 2.41071716,13.4598375 L4.79130035,7.2723301 L7.60380371,0 L8.88951953,0 Z M7.28237475,4.32924623 L5.57478343,8.84934091 C6.56920426,8.85938556 7.56362509,8.88951953 8.55804592,8.88951953 C8.74889436,8.88951953 8.9397428,8.87947487 9.13059124,8.86943022 C8.60826919,7.34264268 7.99554525,5.78572118 7.28237475,4.32924623 L7.28237475,4.32924623 Z" id="Text" fill="#535F6A" fill-rule="nonzero"></path>
    </g>
</svg>

<svg xmlns="http://www.w3.org/2000/svg" width="17" height="16"><path fill="#535F6A" fill-rule="nonzero" d="M8.89 0c.04.07.08.14.11.21l2.06 4.822c.501 1.186.977 2.38 1.464 3.568l.745 1.776c.362.836.659 1.69 1.02 2.524l.377.815c.073.146.167.304.26.378.332.26 1.256.321 1.728.502.03.19.06.382.06.572l-.01.262c-1.275 0-2.551-.161-3.827-.161-1.316 0-2.631.11-3.947.15 0-.26.01-.522.04-.783l1.556-.333c.264-.062.563-.172.563-.45 0-.362-1.295-3.345-1.456-3.757l-4.52-.02-.145.342c-.374.916-1.13 2.924-1.13 3.254 0 .773 1.476.803 2.048.884.01.19.01.381.01.582 0 .09-.01.181-.02.272-1.165 0-2.34-.201-3.505-.201-.141 0-.342.06-.483.08-.632.11-1.255.14-1.888.14l.02-.793c.944-.291 1.969-.09 2.39-1.175l2.381-6.188L7.604 0H8.89ZM7.282 4.33 5.575 8.85c.994.01 1.989.04 2.983.04.19 0 .382-.01.573-.02-.523-1.527-1.135-3.084-1.849-4.54Z"/></svg>
